X:1255
T:Bayrisch Polka - schottisch/schottische/scottish
B:"Die Sackpfyf schön Macht siss gethön", 43 Volkstänze u. Schäferlieder aus Schwaben, G.Balling, Schwäbischer Albverein, Stuttgart 1997
Z:abc transcription Simon Wascher
N:please mail errors to: simon.wascher@chello.at
M:2/4
L:1/16
K:G
d2BG d2BG|F2Ace4|d2cA d2cA|G2Bdg4|
d2BG d2BG|F2Ace4|d2cA d2cA|G2B2G4||
eeee eg^fe|edddd4|cccc cedc|cBBBB4|
eeee egfe|edddd4|cccc cedc|B2c2B4|]


